X:871
T:Reel of Tulloch
M:4/4
L:1/8
S:Kerr's Merry Melodies, Bk.1 (c1875)
Z:Nigel Gatherer
K:A
f | e2 Ac/d/ ecAa | e2 AB/c/ dBGf | e2 Ac/d/ eAcA | BE (3EBe dB=G :|
B | cA (3cde cAAB | cA (3cde dB=GB | cA (3cde cAcA | BE (3EBe dB=G :|
<end>
<start>
